X:845
T:Devil's Dream, The
R:reel
H:American version of "Devil among the Tailors", #37
Z:id:hn-reel-845
M:C|
L:1/8
K:A
(3efg | agae agae | agae fedc | dfBf dfBf | dfba gefg |
agae agae | agae fedc | defd ecBA | EFAB A2 :|
|: ed | ceAe ceAe | ceag fedc | dfBf dfBf | dfba gfed |
ceAe ceAe | ceag fedc | defd ecBA | EFAB A2 :|

